public/fide/fed/MGL.svg

<svg xmlns="http://www.w3.org/2000/svg" width="750" height="750" aria-hidden="true" class="iconify iconify--emojione" preserveAspectRatio="xMidYMid" viewBox="0 0 60 60"><path fill="#c94747" d="M0 30c0 13.1 8.4 24.2 20 28.3V1.7C8.4 5.8 0 16.9 0 30m60 0c0-13.1-8.3-24.2-20-28.3v56.6C51.7 54.2 60 43.1 60 30"/><path fill="#2872a0" d="M20 58.3c3.1 1.1 6.5 1.7 10 1.7s6.9-.6 10-1.7V1.7C36.9.6 33.5 0 30 0s-6.9.6-10 1.7Z"/><g transform="matrix(5 0 0 5 -2 -2)"><circle cx="2.6" cy="4.8" r=".7" fill="#f9cf02"/><circle cx="2.6" cy="4.4" r=".8" fill="#c94747"/><g fill="#f9cf02"><circle cx="2.6" cy="4.6" r=".5"/><path d="M2.3 3.6q0 .3.3.3c.2 0 .4-.1.4-.3 0-.1-.1-.1-.1-.2v-.2.3s0 .1-.1.1-.1 0-.1-.1.1-.1.1-.2 0-.1-.1-.2c0-.1-.1-.1-.1-.2-.1 0 0 .2 0 .2s-.1.1-.1.2v.2s0 .1-.1.1-.1 0-.1-.1v-.1c0-.1-.1-.1 0-.2-.1.1 0 .1 0 .2zm-1.1 2v3.1h.6V5.6zm2.2 0v3.1h.7V5.6zM2 6.1v.3h1.3v-.3zm0 1.8v.3h1.3v-.3zm0-2.3h1.3l-.7.4zm0 2.7h1.3l-.7.4z"/></g></g><circle cx="11.2" cy="33.8" r="3.4" fill="#f9cf02"/><g fill="#c94747" transform="translate(-2 -2)"><path d="M13.2 39.5c-2 0-3.6-1.6-3.6-3.6s1.6-3.6 3.6-3.6 3.6 1.6 3.6 3.6-1.6 3.6-3.6 3.6m0-6.9c-1.8 0-3.3 1.5-3.3 3.3s1.5 3.3 3.3 3.3 3.3-1.5 3.3-3.3-1.5-3.3-3.3-3.3"/><path d="M13.2 39.5c-1.1 0-1.9-.9-1.9-1.9s.9-1.9 1.9-1.9c.8 0 1.5-.7 1.5-1.5s-.7-1.5-1.5-1.5v-.4c1.1 0 1.9.9 1.9 1.9 0 1.1-.9 1.9-1.9 1.9-.8 0-1.5.7-1.5 1.5s.7 1.5 1.5 1.5z"/><circle cx="13.2" cy="34.1" r=".7"/><circle cx="13.2" cy="37.5" r=".6"/></g></svg>

<?xml version="1.0" encoding="UTF-8" standalone="no"?>
<!-- License: MIT. Made by joypixels: https://github.com/joypixels/emojione -->

<svg
   width="750"
   height="750"
   viewBox="0 0 60 60"
   aria-hidden="true"
   role="img"
   class="iconify iconify--emojione"
   preserveAspectRatio="xMidYMid"
   version="1.1"
   id="svg9"
   xmlns="http://www.w3.org/2000/svg"
   xmlns:svg="http://www.w3.org/2000/svg">
  <defs
     id="defs9" />
  <g
     fill="#c94747"
     id="g2"
     transform="translate(-2,-2)">
    <path
       d="m 2,32 c 0,13.1 8.4,24.2 20,28.3 V 3.7 C 10.4,7.8 2,18.9 2,32 Z"
       id="path1" />
    <path
       d="M 62,32 C 62,18.9 53.7,7.8 42,3.7 V 60.3 C 53.7,56.2 62,45.1 62,32"
       id="path2" />
  </g>
  <path
     d="m 20,58.3 c 3.1,1.1 6.5,1.7 10,1.7 3.5,0 6.9,-0.6 10,-1.7 V 1.7 C 36.9,0.6 33.5,0 30,0 26.5,0 23.1,0.6 20,1.7 Z"
     fill="#2872a0"
     id="path3" />
  <g
     transform="matrix(5,0,0,5,-2,-2)"
     id="g7">
    <circle
       cx="2.5999999"
       cy="4.8000002"
       r="0.69999999"
       fill="#f9cf02"
       id="circle3" />
    <circle
       cx="2.5999999"
       cy="4.4000001"
       r="0.80000001"
       fill="#c94747"
       id="circle4" />
    <g
       fill="#f9cf02"
       id="g6">
      <circle
         cx="2.5999999"
         cy="4.5999999"
         r="0.5"
         id="circle5" />
      <path
         d="M 2.3,3.6 C 2.3,3.8 2.4,3.9 2.6,3.9 2.8,3.9 3,3.8 3,3.6 3,3.5 2.9,3.5 2.9,3.4 V 3.2 3.5 c 0,0 0,0.1 -0.1,0.1 C 2.7,3.6 2.7,3.6 2.7,3.5 2.7,3.4 2.8,3.4 2.8,3.3 2.8,3.2 2.8,3.2 2.7,3.1 2.7,3 2.6,3 2.6,2.9 c -0.1,0 0,0.2 0,0.2 0,0 -0.1,0.1 -0.1,0.2 v 0.2 c 0,0 0,0.1 -0.1,0.1 -0.1,0 -0.1,0 -0.1,-0.1 V 3.4 c 0,-0.1 -0.1,-0.1 0,-0.2 -0.1,0.1 0,0.1 0,0.2 v 0.2"
         id="path5" />
      <path
         d="M 1.2,5.6 V 8.7 H 1.8 V 5.6 H 1.2 m 2.2,0 V 8.7 H 4.1 V 5.6 H 3.4 M 2,6.1 V 6.4 H 3.3 V 6.1 H 2 M 2,7.9 V 8.2 H 3.3 V 7.9 H 2 M 2,5.6 H 3.3 L 2.6,6 2,5.6 M 2,8.3 H 3.3 L 2.6,8.7 2,8.3"
         id="path6" />
    </g>
  </g>
  <circle
     cx="11.2"
     cy="33.799999"
     r="3.4000001"
     fill="#f9cf02"
     id="circle7" />
  <g
     fill="#c94747"
     id="g9"
     transform="translate(-2,-2)">
    <path
       d="m 13.2,39.5 c -2,0 -3.6,-1.6 -3.6,-3.6 0,-2 1.6,-3.6 3.6,-3.6 2,0 3.6,1.6 3.6,3.6 0,2 -1.6,3.6 -3.6,3.6 m 0,-6.9 c -1.8,0 -3.3,1.5 -3.3,3.3 0,1.8 1.5,3.3 3.3,3.3 1.8,0 3.3,-1.5 3.3,-3.3 0,-1.8 -1.5,-3.3 -3.3,-3.3"
       id="path7" />
    <path
       d="m 13.2,39.5 c -1.1,0 -1.9,-0.9 -1.9,-1.9 0,-1 0.9,-1.9 1.9,-1.9 0.8,0 1.5,-0.7 1.5,-1.5 0,-0.8 -0.7,-1.5 -1.5,-1.5 v -0.4 c 1.1,0 1.9,0.9 1.9,1.9 0,1.1 -0.9,1.9 -1.9,1.9 -0.8,0 -1.5,0.7 -1.5,1.5 0,0.8 0.7,1.5 1.5,1.5 v 0.4"
       id="path8" />
    <circle
       cx="13.2"
       cy="34.099998"
       r="0.69999999"
       id="circle8" />
    <circle
       cx="13.2"
       cy="37.5"
       r="0.60000002"
       id="circle9" />
  </g>
</svg>
